resources/svg/message-text-alt-o.svg

<svg xmlns="http://www.w3.org/2000/svg" viewBox="0 0 15 15" fill="none"><path d="M3.5 11.4928H4V10.9928H3.5V11.4928ZM3.5 14.4908H3C3 14.6802 3.10697 14.8533 3.27632 14.938C3.44568 15.0227 3.64835 15.0045 3.79988 14.8909L3.5 14.4908ZM7.5 11.4928V10.9928H7.33342L7.20013 11.0927L7.5 11.4928ZM4.5 3.99738H4V4.99738H4.5V3.99738ZM10.5 4.99738H11V3.99738H10.5V4.99738ZM4.5 6.99542H4V7.99542H4.5V6.99542ZM8.5 7.99542H9V6.99542H8.5V7.99542ZM3 11.4928V14.4908H4V11.4928H3ZM3.79988 14.8909L7.79987 11.8929L7.20013 11.0927L3.20012 14.0908L3.79988 14.8909ZM7.5 11.9928H13.5V10.9928H7.5V11.9928ZM13.5 11.9928C14.3288 11.9928 15 11.3226 15 10.4935H14C14 10.7696 13.7772 10.9928 13.5 10.9928V11.9928ZM15 10.4935V1.49933H14V10.4935H15ZM15 1.49933C15 0.670226 14.3288 0 13.5 0V1C13.7772 1 14 1.22315 14 1.49933H15ZM13.5 0H1.5V1H13.5V0ZM1.5 0C0.671178 0 0 0.670226 0 1.49933H1C1 1.22315 1.22282 1 1.5 1V0ZM0 1.49933V10.4935H1V1.49933H0ZM0 10.4935C0 11.3226 0.671178 11.9928 1.5 11.9928V10.9928C1.22282 10.9928 1 10.7696 1 10.4935H0ZM1.5 11.9928H3.5V10.9928H1.5V11.9928ZM4.5 4.99738H10.5V3.99738H4.5V4.99738ZM4.5 7.99542H8.5V6.99542H4.5V7.99542Z" fill="black"/></svg>

<svg xmlns="http://www.w3.org/2000/svg" viewBox="0 0 15 15" fill="none"><path d="M3.5 11.493H4v-.5h-.5v.5zm0 2.998H3a.5.5 0 00.8.4l-.3-.4zm4-2.998v-.5h-.167l-.133.1.3.4zm-3-7.496H4v1h.5v-1zm6 1h.5v-1h-.5v1zm-6 1.998H4v1h.5v-1zm4 1H9v-1h-.5v1zM3 11.493v2.998h1v-2.998H3zm.8 3.398l4-2.998-.6-.8-4 2.998.6.8zm3.7-2.898h6v-1h-6v1zm6 0c.829 0 1.5-.67 1.5-1.5h-1c0 .277-.223.5-.5.5v1zm1.5-1.5V1.5h-1v8.994h1zM15 1.5c0-.83-.671-1.5-1.5-1.5v1c.277 0 .5.223.5.5h1zM13.5 0h-12v1h12V0zm-12 0C.671 0 0 .67 0 1.5h1c0-.277.223-.5.5-.5V0zM0 1.5v8.993h1V1.5H0zm0 8.993c0 .83.671 1.5 1.5 1.5v-1a.499.499 0 01-.5-.5H0zm1.5 1.5h2v-1h-2v1zm3-6.996h6v-1h-6v1zm0 2.998h4v-1h-4v1z" fill="currentColor"/></svg>
